X:1
T:Title
%%score { ( 1 3 ) | ( 2 4 ) }
L:1/8
Q:1/4=100
M:4/4
K:G
V:1 treble nm="Grand Piano"
V:3 treble 
V:2 treble 
V:4 treble 
V:1
 d3 e dB[CFA][DFB] | G2- [CEG-][CEG-] [B,DG]2 z2 | [G,CE]3 [A,DF] [G,DG][DA][DB][DG] | %3
w: T.~Martin~Towne * * * * *|||
 F4- [Fd]2 [Dc]-[DAc] | B3 c Bd c>B | [EA]4 z4 | F3 G [CFA][EFc] [DFB]>[CFA] | [B,G]6 z2 | %8
w: |||||
 [DGB]4 d2 G,2 | e2 d2 B2 G,2 | G2 G2 [FA]2 [FA]2 | [DGB]6 z2 |[Q:1/4=112] B2 d2 d2 d2 | %13
w: |||||
 e2 d2 [Fc]4 | [DA]2 [Fc]2 [Fc]2 [Fc]2 | [Bd]2 [Ac]2 B4 | B2 d2 c2 B2 | [CFA]2 [B,EG]2 [CE]4 | %18
w: |||||
 [G,D]2 .[B,DG]2 [B,Dd]2 [DGB]2 | [CEA]2 [CFB]2 [B,G]4 |] %20
w: ||
V:2
 [G,B,G]3 [G,CG] [G,B,G][G,DG][K:bass]D,D, | G,,2 G,,G,, G,,2 z2 | C,3 C, B,,[A,,F,][G,,G,]B,, | %3
 z4 A,2 E,F, | [G,DG]3 [G,EG] [G,DG][B,DG] [A,DG]>[G,D=F] | C,2 C,C, [C,C]2 z2 | %6
 [D,A,D]3 [D,B,D] D,D, D,>D, | G,,6 z2 | G,2 G,2 [G,B,G]2 z2 | G2- [G,B,G]2 [G,D]2 z2 | %10
 [E,B,E]2 [E,B,E]2 [D,D]2 [D,D]2 | G,2 G,2 G,2 z2 | [G,DG]2 [G,B,G]2 [G,B,G]2 [G,B,G]2 | %13
 [G,CG]2 [G,B,G]2[K:bass] [D,A,]4 | [D,F,]2 [D,A,]2 [D,A,]2 [D,A,]2 | %15
 [D,F,]2 [D,F,]2[K:treble] [G,G]4 | [G,DG]2 [B,DG]2 [A,DF]2 [G,DG]2 | D,2 E,2 C,4 | %18
 B,,2 z[K:treble] B[K:bass] G,,2 B,,2 | C,2 D,2 G,,4 |] %20
V:3
 x8 | B,2 z2 z4 | x8 | [DA]4 z2 .G2 | x8 | C2 CC E2 z2 | x8 | x8 | x8 | x8 | x8 | x8 | x8 | x8 | %14
 x8 | x8 | x8 | x8 | x8 | x8 |] %20
V:4
 x6[K:bass] x2 | x8 | x8 | D,6 z2 | x8 | x8 | x8 | x8 | x8 | [G,C]2 z2 z4 | x8 | x8 | x8 | %13
 x4[K:bass] x4 | x8 | x4[K:treble] x4 | x8 | x8 | z2 G,,2[K:treble][K:bass] z4 | x8 |] %20

